public/theme/icons/celery.svg

<svg width="33" height="34" viewBox="0 0 33 34" fill="none" xmlns="http://www.w3.org/2000/svg">
<circle cx="15" cy="15" r="15" fill="#76C06E"/>
<path fill-rule="evenodd" clip-rule="evenodd" d="M29.7182 17.9086C29.9031 16.9677 30 15.9952 30 15C30 6.71573 23.2843 0 15 0C6.71573 0 0 6.71573 0 15C0 23.2843 6.71573 30 15 30C16.7286 30 18.3889 29.7076 19.9342 29.1696L12.6275 21.8629L14.3254 19.4465L8.2334 13.3545L12.7524 11.4721L11.6523 10.3721L13.0234 9.00098L14.6882 10.6658L15.388 10.3743L13.9814 8.96777L15.7002 7.24902L17.8147 9.3635L18.7867 8.95861L20.4948 10.6667L21.3125 9.50293L29.7182 17.9086Z" fill="#93D38D"/>
<g filter="url(#filter0_d_105_29526)">
<path fill-rule="evenodd" clip-rule="evenodd" d="M16.5897 9.06139C16.1365 9.81349 16.2594 10.2258 16.3596 10.5623C16.4648 10.9151 16.5451 11.1844 15.9096 11.6747C15.8617 11.7116 15.8335 11.7685 15.8361 11.8289C15.8811 12.8666 16.0498 16.2939 16.342 17.0469C16.3673 17.1119 16.4342 17.093 16.4457 17.0243C16.6172 16.0006 16.9246 14.7107 17.4212 12.9127C17.4352 12.8621 17.4035 12.8101 17.3528 12.7964C16.8032 12.6481 16.4062 12.2221 16.4062 11.7197C16.4062 11.4445 16.5253 11.1922 16.7233 10.9959C16.7563 10.9633 16.7627 10.9118 16.7383 10.8724C16.5955 10.6417 16.5125 10.3655 16.5125 10.0686C16.5125 9.26053 17.1279 8.60547 17.887 8.60547C18.4971 8.60547 19.0144 9.0285 19.194 9.61402C19.2144 9.68057 19.298 9.70917 19.3536 9.66725C19.9757 9.1979 20.8186 9.05968 21.3157 9.50344C21.7425 9.88443 21.4289 10.4945 21.123 11.0896C21.0441 11.243 20.9658 11.3954 20.9008 11.5426C20.9007 11.5428 20.9006 11.5429 20.9005 11.543L20.9 11.5435C20.8996 11.5438 20.8997 11.5443 20.9 11.5445V11.5445C20.9001 11.5446 20.9002 11.5446 20.9003 11.5447C22.1161 11.8606 22.2125 12.882 21.7233 13.4003C21.4937 13.6434 21.1704 13.5727 20.7061 13.4711C20.1811 13.3563 19.476 13.2021 18.5226 13.4177C18.5218 13.4179 18.5213 13.4186 18.5213 13.4193V13.4193C18.5213 13.4195 18.5213 13.4196 18.5212 13.4197C17.8354 16.3965 17.8066 17.7198 18.0983 19.744C18.3901 21.7683 16.0364 23.0006 14.9791 23.0006H14.9789H14.9779C13.9205 23.0006 11.5871 21.7683 11.8771 19.744C12.1671 17.7198 12.1384 16.3965 11.4567 13.4197C11.4567 13.4196 11.4566 13.4195 11.4566 13.4193V13.4193C11.4566 13.4185 11.456 13.4177 11.4552 13.4176C10.5078 13.2022 9.80703 13.3563 9.28528 13.4711C8.82375 13.5727 8.50229 13.6434 8.27413 13.4003C7.78783 12.882 7.88361 11.8606 9.09231 11.5447C9.09236 11.5446 9.09242 11.5446 9.09247 11.5446V11.5446C9.09269 11.5444 9.0927 11.5441 9.09249 11.5439L9.09158 11.5431C9.09142 11.5429 9.0913 11.5428 9.09121 11.5426C9.02659 11.3954 8.94874 11.243 8.87037 11.0896L8.87037 11.0896L8.87037 11.0896L8.87036 11.0896L8.87036 11.0896C8.56625 10.4945 8.25453 9.88443 8.67876 9.50344C9.17259 9.05996 10.0098 9.19772 10.6281 9.66635C10.6837 9.70849 10.7676 9.67988 10.788 9.61315C10.9668 9.02809 11.4808 8.60547 12.0869 8.60547C12.8416 8.60547 13.4534 9.26053 13.4534 10.0686C13.4534 10.3655 13.3708 10.6417 13.2289 10.8723C13.2048 10.9116 13.2112 10.9629 13.2439 10.9954C13.441 11.1918 13.5596 11.4442 13.5596 11.7197C13.5596 12.2221 13.1649 12.6482 12.6185 12.7964C12.5679 12.8102 12.5363 12.8621 12.5501 12.9126C13.0499 14.7327 13.3569 16.0321 13.5262 17.0618C13.536 17.1219 13.5978 17.1496 13.6324 17.0995C13.9611 16.6246 14.1634 14.4194 14.1369 11.8728C14.1363 11.8136 14.1061 11.7584 14.0585 11.7233C13.4752 11.2921 13.5437 10.9119 13.6207 10.4844C13.708 9.99982 13.8063 9.45446 12.9784 8.70537C12.9395 8.67015 12.9131 8.6195 12.9234 8.56804C12.9565 8.40269 13.0997 8.42626 13.2544 8.45175C13.3615 8.46938 13.4741 8.48793 13.5597 8.4455C13.5907 8.43013 13.6084 8.39792 13.6183 8.36474C13.8902 7.45491 14.4937 7 15.0309 7C15.731 7 15.9476 7.52498 16.1711 8.06671C16.282 8.33549 16.3946 8.60838 16.5688 8.82334C16.6236 8.89097 16.6346 8.98684 16.5897 9.06139ZM10.8235 11.6407C10.8262 11.6387 10.83 11.6408 10.8297 11.6441V11.6441C10.8295 11.6475 10.8253 11.649 10.823 11.6465V11.6465C10.8214 11.6448 10.8216 11.6421 10.8235 11.6407V11.6407ZM19.1586 11.641C19.1559 11.639 19.1521 11.641 19.1524 11.6444V11.6444C19.1526 11.6477 19.1567 11.6491 19.159 11.6467V11.6467C19.1606 11.6451 19.1604 11.6424 19.1586 11.641V11.641Z" fill="white"/>
</g>
<defs>
<filter id="filter0_d_105_29526" x="4" y="5" width="21.999" height="24.0006" filterUnits="userSpaceOnUse" color-interpolation-filters="sRGB">
<feFlood flood-opacity="0" result="BackgroundImageFix"/>
<feColorMatrix in="SourceAlpha" type="matrix" values="0 0 0 0 0 0 0 0 0 0 0 0 0 0 0 0 0 0 127 0" result="hardAlpha"/>
<feOffset dy="2"/>
<feGaussianBlur stdDeviation="2"/>
<feComposite in2="hardAlpha" operator="out"/>
<feColorMatrix type="matrix" values="0 0 0 0 0 0 0 0 0 0 0 0 0 0 0 0 0 0 0.1 0"/>
<feBlend mode="normal" in2="BackgroundImageFix" result="effect1_dropShadow_105_29526"/>
<feBlend mode="normal" in="SourceGraphic" in2="effect1_dropShadow_105_29526" result="shape"/>
</filter>
</defs>
</svg>

<svg xmlns="http://www.w3.org/2000/svg" width="33" height="34" fill="none"><circle cx="15" cy="15" r="15" fill="#76C06E"/><path fill="#93D38D" fill-rule="evenodd" d="M29.718 17.909c.185-.941.282-1.914.282-2.909 0-8.284-6.716-15-15-15S0 6.716 0 15s6.716 15 15 15a15 15 0 0 0 4.934-.83l-7.307-7.307 1.698-2.416-6.092-6.092 4.52-1.883-1.1-1.1 1.37-1.371 1.665 1.665.7-.292-1.407-1.406 1.72-1.719 2.114 2.115.972-.405 1.708 1.708.817-1.164z" clip-rule="evenodd"/><g filter="url(#a)"><path fill="#fff" fill-rule="evenodd" d="M16.59 9.061c-.453.752-.33 1.165-.23 1.501.105.353.185.622-.45 1.113a.19.19 0 0 0-.074.154c.045 1.038.214 4.465.506 5.218.025.065.092.046.104-.023.171-1.023.479-2.313.975-4.111a.095.095 0 0 0-.068-.117c-.55-.148-.947-.574-.947-1.076 0-.276.12-.528.317-.724a.1.1 0 0 0 .015-.124 1.5 1.5 0 0 1-.226-.803c0-.808.616-1.464 1.375-1.464.61 0 1.127.423 1.307 1.009.02.067.104.095.16.053.622-.47 1.465-.607 1.962-.164.427.381.113.992-.193 1.587a9 9 0 0 0-.222.453H20.9v.002c1.216.316 1.313 1.337.823 1.855-.23.243-.553.173-1.017.071-.525-.115-1.23-.269-2.183-.053l-.002.001c-.686 2.977-.714 4.3-.423 6.325.292 2.024-2.062 3.257-3.119 3.257h-.001c-1.057 0-3.39-1.233-3.1-3.257s.26-3.347-.421-6.324q0-.002-.002-.002c-.947-.216-1.648-.062-2.17.053-.461.102-.783.172-1.01-.07-.487-.519-.391-1.54.817-1.856v-.002a9 9 0 0 0-.222-.453c-.304-.595-.615-1.206-.191-1.587.494-.443 1.33-.305 1.95.163.055.042.139.014.159-.053.179-.585.693-1.008 1.299-1.008.755 0 1.366.656 1.366 1.464 0 .297-.082.573-.224.803a.1.1 0 0 0 .015.123c.197.197.316.45.316.725 0 .502-.395.928-.942 1.076a.096.096 0 0 0-.068.117c.5 1.82.807 3.12.976 4.149.01.06.072.088.106.037.33-.474.531-2.68.505-5.226a.19.19 0 0 0-.079-.15c-.583-.43-.514-.811-.437-1.239.087-.484.185-1.03-.643-1.779-.038-.035-.065-.085-.055-.137.034-.165.177-.142.331-.116.107.017.22.036.306-.007.03-.015.048-.047.058-.08.272-.91.876-1.365 1.413-1.365.7 0 .917.525 1.14 1.067.111.268.224.541.398.756a.21.21 0 0 1 .02.238m-5.767 2.58q.006-.002.007.003a.004.004 0 0 1-.007.002zm8.336 0a.004.004 0 0 0-.007.003q.002.006.007.003a.004.004 0 0 0 0-.006" clip-rule="evenodd"/></g><defs><filter id="a" width="21.999" height="24.001" x="4" y="5" color-interpolation-filters="sRGB" filterUnits="userSpaceOnUse"><feFlood flood-opacity="0" result="BackgroundImageFix"/><feColorMatrix in="SourceAlpha" result="hardAlpha" values="0 0 0 0 0 0 0 0 0 0 0 0 0 0 0 0 0 0 127 0"/><feOffset dy="2"/><feGaussianBlur stdDeviation="2"/><feComposite in2="hardAlpha" operator="out"/><feColorMatrix values="0 0 0 0 0 0 0 0 0 0 0 0 0 0 0 0 0 0 0.1 0"/><feBlend in2="BackgroundImageFix" result="effect1_dropShadow_105_29526"/><feBlend in="SourceGraphic" in2="effect1_dropShadow_105_29526" result="shape"/></filter></defs></svg>
